X: 2816
T: Baptism
R: waltz
M: 3/4
K: Cmajor
EF|G4 e2|d4 Bc|c4 F2|E4 EF|
G4 e2|d4 cB|A4 A2|B4 EF|
G4 e2|d4 Bc|c4 F2|E4 EF|
F4 A2|G4 D2|E6|E4 DE|
F4 A2|G4 C2|C6-|C4 ce||
d4 d2|d2 c2 A2|G4 e2|e2 d2 c2|
d4 d2|d2 c2 A2|G4 e2|e4 eg|
a4 e2|e2 d2 A2|A4 c2|c4 de|
d4 d2|d2 c2 A2|G4 e2|d4 c2|c4||

